logo/architect-icon.svg

<?xml version="1.0" encoding="UTF-8"?>
<svg width="256px" height="256px" viewBox="0 0 256 256" version="1.1" xmlns="http://www.w3.org/2000/svg" preserveAspectRatio="xMidYMid">
    <title>Architect</title>
    <g>
        <path d="M116.588067,105.225338 C122.028966,97.4166836 133.480724,97.2843335 139.125051,104.828288 L139.411759,105.225338 L198.11099,189.464585 C198.12897,189.490694 198.158045,189.506985 198.1897,189.508686 L198.235311,189.500632 L198.235311,189.500632 L198.272686,189.473278 C198.293749,189.45021 198.323949,189.437657 198.355158,189.439 L198.399347,189.450823 L198.399347,189.450823 L198.434382,189.480233 L217.457168,215.421186 C218.465597,216.796474 218.331719,218.705533 217.105957,219.893045 C194.061628,242.241906 162.638649,256 128.000348,256 C93.3625683,256 61.9381984,242.241906 38.8938692,219.893045 C37.7411925,218.77375 37.5540274,217.01838 38.3771647,215.667703 L38.5433533,215.419447 L57.5657917,189.480233 C57.5842667,189.454714 57.6133952,189.439042 57.6448707,189.437687 L57.6901707,189.446036 L57.6901707,189.446036 L57.7273141,189.473278 C57.7481608,189.497325 57.778944,189.510396 57.8107234,189.508697 L57.8554076,189.495803 L57.8554076,189.495803 L57.8898797,189.464585 L116.588067,105.225338 Z M128.000348,-1.42108547e-14 C198.693444,-1.42108547e-14 256,57.3077731 256,128.000348 C256,151.8276 249.49042,174.134733 238.150816,193.239237 C236.968855,195.230348 234.229228,195.413024 232.721873,193.722347 L232.547083,193.510469 L213.931146,169.103023 C213.147006,168.07373 213.002696,166.698443 213.522559,165.514409 C218.56644,154.033972 221.365698,141.343421 221.365698,128.000348 C221.365698,76.4362703 179.564599,34.6353453 128.000348,34.6353453 C76.4362703,34.6353453 34.6353453,76.4362703 34.6353453,128.000348 C34.6353453,141.343421 37.4344297,154.032233 42.4774414,165.51267 C42.9574748,166.607229 42.8718829,167.863269 42.2389903,168.859596 L42.0693756,169.103023 L23.4536122,193.510469 C21.9936511,195.424745 19.0787712,195.309993 17.8500533,193.239237 C6.51062286,174.134733 0,151.8276 0,128.000348 C0,57.3077731 57.3077731,-1.42108547e-14 128.000348,-1.42108547e-14 Z" fill="#000000"></path>
    </g>
</svg>

<svg viewBox="0 0 256 256" xmlns="http://www.w3.org/2000/svg"><path d="M116.58 105.22c5.44-7.81 16.89-7.95 22.53-.4l.28.39 58.69 84.23c.01.02.04.04.07.04l.04-.01v0l.03-.03c.02-.03.05-.04.08-.04l.04.01v0l.03.02 19.02 25.94c1 1.37.87 3.28-.36 4.47 -23.05 22.34-54.47 36.1-89.11 36.1s-66.07-13.76-89.11-36.11c-1.16-1.12-1.34-2.88-.52-4.23l.16-.25 19.02-25.94c.01-.03.04-.05.07-.05l.04 0v0l.03.02c.02.02.05.03.08.03l.04-.02v0l.03-.04 58.69-84.24ZM127.99-.01c70.69 0 127.99 57.3 127.99 128 0 23.82-6.51 46.13-17.85 65.23 -1.19 1.99-3.93 2.17-5.43.48l-.18-.22 -18.62-24.41c-.79-1.03-.93-2.41-.41-3.59 5.04-11.49 7.84-24.18 7.84-37.52 0-51.57-41.81-93.37-93.37-93.37 -51.57 0-93.37 41.8-93.37 93.36 0 13.34 2.79 26.03 7.84 37.51 .48 1.09.39 2.35-.24 3.34l-.17.24 -18.62 24.4c-1.46 1.91-4.38 1.79-5.61-.28C6.45 174.05-.07 151.74-.07 127.92c0-70.7 57.3-128.01 128-128.01Z"/></svg>
